;FLAVOR:Marlin
;TIME:5799
;Filament used: 3.0847m
;Layer height: 0.1
;Generated with Cura_SteamEngine 3.1.0
M190 S60
M104 S200
M109 S200
M82 ; absolute extrusion mode
G28 ;Home
G1 Z15.0 F6000 ;Move the platform down 15mm
G92 E0
G1 F200 E3
G92 E0
;LAYER_COUNT:144
;LAYER:0
M107
G0 F3600 X97.635 Y70.023 Z0.3
;TYPE:SKIRT
G1 F1800 X97.969 Y69.603 E0.02677
G1 X98.361 Y69.237 E0.05353
G1 X98.803 Y68.934 E0.08026
G1 X99.286 Y68.7 E0.10704
G1 X99.798 Y68.54 E0.1338
G1 X100.328 Y68.458 E0.16056
G1 X100.629 Y68.447 E0.17558
G1 X129.455 Y68.587 E1.61374
G1 X129.99 Y68.63 E1.64051
G1 X130.512 Y68.751 E1.66725
G1 X131.011 Y68.949 E1.69403
G1 X131.475 Y69.218 E1.72079
G1 X131.893 Y69.554 E1.74754
G1 X132.257 Y69.948 E1.77431
G1 X132.558 Y70.391 E1.80103
G1 X132.79 Y70.875 E1.8278
G1 X132.948 Y71.387 E1.85454
G1 X133.028 Y71.918 E1.88133
G1 X133.038 Y72.187 E1.89476
G1 X133.042 Y150.075 E5.78061
G1 X133.002 Y150.61 E5.80737
G1 X132.883 Y151.133 E5.83413
G1 X132.688 Y151.632 E5.86086
G1 X132.366 Y152.175 E5.89235
G1 X126.722 Y160.031 E6.37495
G1 X126.377 Y160.442 E6.40173
G1 X125.976 Y160.798 E6.42848
G1 X125.525 Y161.089 E6.45526
G1 X125.037 Y161.311 E6.482
G1 X124.521 Y161.458 E6.50877
G1 X123.803 Y161.531 E6.54478
G1 X107.318 Y161.553 E7.36722
G1 X106.783 Y161.514 E7.39398
G1 X106.26 Y161.396 E7.42073
G1 X105.76 Y161.201 E7.4475
G1 X105.295 Y160.934 E7.47425
G1 X104.874 Y160.601 E7.50103
G1 X104.56 Y160.273 E7.52369
G1 X97.804 Y152.254 E8.04682
G1 X97.49 Y151.819 E8.07358
G1 X97.244 Y151.342 E8.10036
G1 X97.071 Y150.834 E8.12713
G1 X96.976 Y150.307 E8.15385
G1 X96.957 Y149.931 E8.17263
G1 X97.012 Y72.044 E12.05843
G1 X97.052 Y71.51 E12.08515
G1 X97.172 Y70.987 E12.11192
G1 X97.367 Y70.488 E12.13864
G1 X97.635 Y70.023 E12.16542
G0 F3600 X98.033 Y70.153
G1 F1800 X98.363 Y69.771 E12.19061
G1 X98.75 Y69.445 E12.21585
G1 X99.183 Y69.184 E12.24107
G1 X99.652 Y68.995 E12.2663
G1 X100.144 Y68.881 E12.2915
G1 X100.628 Y68.847 E12.3157
G1 X129.454 Y68.987 E13.75386
G1 X129.957 Y69.029 E13.77904
G1 X130.448 Y69.151 E13.80428
G1 X130.914 Y69.348 E13.82952
G1 X131.343 Y69.615 E13.85473
G1 X131.724 Y69.948 E13.87997
G1 X132.048 Y70.335 E13.90515
G1 X132.307 Y70.77 E13.93041
G1 X132.494 Y71.239 E13.9556
G1 X132.606 Y71.732 E13.98082
G1 X132.638 Y72.187 E14.00358
G1 X132.642 Y150.075 E17.88943
G1 X132.602 Y150.579 E17.91465
G1 X132.483 Y151.07 E17.93986
G1 X132.289 Y151.537 E17.96509
G1 X132.041 Y151.942 E17.98878
G1 X126.397 Y159.798 E18.47138
G1 X126.07 Y160.184 E18.49662
G1 X125.687 Y160.514 E18.52184
G1 X125.257 Y160.779 E18.54704
G1 X124.79 Y160.973 E18.57227
G1 X124.298 Y161.092 E18.59752
G1 X123.802 Y161.131 E18.62235
G1 X107.317 Y161.153 E19.44479
G1 X106.813 Y161.114 E19.47001
G1 X106.322 Y160.996 E19.4952
G1 X105.855 Y160.801 E19.52045
G1 X105.424 Y160.536 E19.54569
G1 X105.041 Y160.207 E19.57088
G1 X104.866 Y160.015 E19.58384
G1 X98.11 Y151.996 E20.10697
G1 X97.816 Y151.585 E20.13218
G1 X97.59 Y151.132 E20.15744
G1 X97.438 Y150.65 E20.18265
G1 X97.357 Y149.932 E20.2187
G1 X97.412 Y72.045 E24.1045
G1 X97.452 Y71.541 E24.12972
G1 X97.571 Y71.049 E24.15498
G1 X97.767 Y70.583 E24.1802
G1 X98.033 Y70.153 E24.20542
G1 F2400 E20.20542
G0 F3600 X99.936 Y72.654
G0 X101.216 Y72.654
G0 X101.301 Y72.84
G0 X101.202 Y72.84
;TYPE:WALL-INNER
G1 F2400 E24.20542
G1 F1800 X101.202 Y72.64 E24.2154
G1 X101.402 Y72.64 E24.22186
G1 X128.852 Y72.774 E25.59136
G1 X128.852 Y149.89 E29.4387
G1 X123.478 Y157.363 E29.89792
G1 X107.583 Y157.363 E30.69092
G1 X101.148 Y149.726 E31.18916
G1 X101.202 Y72.84 E35.02502
G0 F3600 X101.301 Y72.84
G0 X103.763 Y80.257
G0 X103.833 Y80.327
G1 F1800 X103.833 Y123.666 E37.18721
G1 X108.46 Y123.666 E37.41805
G1 X108.67 Y123.666 E37.42853
G1 X109.354 Y123.666 E37.46265
G1 X108.67 Y123.913 E37.47496
G1 X108.509 Y124.047 E37.48353
G1 X108.027 Y124.45 E37.51487
G1 X107.613 Y125.168 E37.55622
G1 X107.47 Y125.983 E37.5975
G1 X107.613 Y126.798 E37.63878
G1 X108.027 Y127.515 E37.68009
G1 X108.661 Y128.049 E37.72145
G1 X109.44 Y128.331 E37.76278
G1 X110.267 Y128.331 E37.80404
G1 X111.045 Y128.049 E37.84532
G1 X111.681 Y127.516 E37.88672
G1 X112.095 Y126.798 E37.92807
G1 X112.238 Y125.983 E37.96935
G1 X112.095 Y125.168 E38.01064
G1 X111.718 Y124.516 E38.04821
G1 X111.629 Y124.406 E38.05527
G1 X111.2 Y124.048 E38.08315
G1 X111.044 Y123.918 E38.09328
G1 X110.353 Y123.666 E38.12997
G1 X111.044 Y123.666 E38.14045
G1 X111.248 Y123.666 E38.14887
G1 X118.15 Y123.666 E38.49321
G1 X118.353 Y123.666 E38.50334
G1 X119.047 Y123.666 E38.53796
G1 X118.353 Y123.918 E38.55069
G1 X118.198 Y124.048 E38.55903
G1 X117.719 Y124.45 E38.59023
G1 X117.305 Y125.167 E38.63154
G1 X117.161 Y125.983 E38.67288
G1 X117.305 Y126.799 E38.71421
G1 X117.719 Y127.515 E38.75548
G1 X118.353 Y128.049 E38.79683
G1 X119.132 Y128.331 E38.83817
G1 X119.959 Y128.331 E38.87942
G1 X120.738 Y128.049 E38.92076
G1 X121.372 Y127.516 E38.96208
G1 X121.787 Y126.799 E39.00341
G1 X121.93 Y125.983 E39.04474
G1 X121.787 Y125.167 E39.08607
G1 X121.409 Y124.516 E39.12363
G1 X121.32 Y124.407 E39.13065
G1 X120.893 Y124.048 E39.15848
G1 X120.738 Y123.918 E39.16857
G1 X120.044 Y123.666 E39.20541
G1 X120.738 Y123.666 E39.21594
G1 X120.941 Y123.666 E39.22431
G1 X126.013 Y123.666 E39.47736
G1 X126.013 Y80.327 E41.63955
G1 X120.142 Y80.327 E41.93245
G1 X119.912 Y80.327 E41.94393
G1 X119.085 Y80.327 E41.98519
G1 X118.855 Y80.327 E41.99666
G1 X110.375 Y80.327 E42.41973
G1 X110.145 Y80.327 E42.43121
G1 X109.317 Y80.327 E42.47252
G1 X109.088 Y80.327 E42.48394
G1 X103.833 Y80.327 E42.74611
G0 F3600 X103.763 Y80.257
G0 X107.874 Y76.102
G0 X108.397 Y75.665
G0 X109.3 Y75.214
G0 X109.317 Y75.312
G1 F1800 X108.54 Y75.595 E42.78737
G1 X107.904 Y76.127 E42.82874
G1 X107.49 Y76.845 E42.87009
G1 X107.347 Y77.66 E42.91137
G1 X107.49 Y78.475 E42.95265
G1 X107.904 Y79.193 E42.994
G1 X108.54 Y79.725 E43.03537
G1 X109.102 Y79.93 E43.06521
G1 X109.317 Y80.008 E43.07548
G1 X110.145 Y80.008 E43.10843
G1 X110.361 Y79.93 E43.11874
G1 X110.924 Y79.725 E43.14863
G1 X111.558 Y79.193 E43.18992
G1 X111.972 Y78.475 E43.23127
G1 X112.115 Y77.66 E43.27255
G1 X111.972 Y76.845 E43.31383
G1 X111.595 Y76.193 E43.35141
G1 X111.506 Y76.084 E43.35843
G1 X110.924 Y75.595 E43.39635
G1 X110.145 Y75.312 E43.4377
G1 X109.317 Y75.312 E43.47901
G0 F3600 X109.3 Y75.214
G0 X119.068 Y75.214
G0 X119.085 Y75.312
G1 F1800 X118.306 Y75.595 E43.52036
G1 X117.673 Y76.127 E43.56162
G1 X117.257 Y76.844 E43.60297
G1 X117.114 Y77.66 E43.6443
G1 X117.257 Y78.476 E43.68563
G1 X117.673 Y79.193 E43.72699
G1 X118.306 Y79.725 E43.76824
G1 X118.869 Y79.93 E43.79813
G1 X119.085 Y80.008 E43.80845
G1 X119.912 Y80.008 E43.84135
G1 X120.128 Y79.93 E43.85166
G1 X120.691 Y79.725 E43.88156
G1 X121.324 Y79.193 E43.92281
G1 X121.74 Y78.476 E43.96416
G1 X121.883 Y77.66 E44.0055
G1 X121.74 Y76.844 E44.04683
G1 X121.362 Y76.193 E44.08438
G1 X121.273 Y76.084 E44.0914
G1 X120.691 Y75.595 E44.12933
G1 X119.912 Y75.312 E44.17068
G1 X119.085 Y75.312 E44.21194
G0 F3600 X119.068 Y75.214
G0 X118.286 Y75.561
G0 X117.643 Y76.102
G0 X117.22 Y76.831
G0 X117.074 Y77.66
G0 X117.22 Y78.489
G0 X117.643 Y79.218
G0 X118.707 Y80.285
G0 X126.041 Y80.299
G0 X126.041 Y123.694
G0 X114.238 Y143.312
G0 X114.255 Y143.41
G1 F1800 X113.478 Y143.693 E44.25319
G1 X112.842 Y144.225 E44.29456
G1 X112.428 Y144.944 E44.33595
G1 X112.285 Y145.762 E44.37738
G1 X112.428 Y146.574 E44.41852
G1 X112.842 Y147.292 E44.45987
G1 X113.478 Y147.824 E44.50123
G1 X114.255 Y148.107 E44.54249
G1 X115.082 Y148.107 E44.58375
G1 X115.862 Y147.824 E44.62514
G1 X116.496 Y147.292 E44.66643
G1 X116.91 Y146.574 E44.70778
G1 X117.053 Y145.759 E44.74907
G1 X116.91 Y144.943 E44.7904
G1 X116.531 Y144.285 E44.82828
G1 X116.443 Y144.181 E44.83508
G1 X115.862 Y143.693 E44.87293
G1 X115.082 Y143.41 E44.91433
G1 X114.255 Y143.41 E44.95559
G0 F3600 X114.326 Y143.81
;TYPE:WALL-OUTER
G1 F1800 X113.681 Y144.045 E44.98984
G1 X113.153 Y144.486 E45.02416
G1 X112.81 Y145.082 E45.05846
G1 X112.691 Y145.762 E45.09291
G1 X112.81 Y146.435 E45.127
G1 X113.153 Y147.031 E45.16131
G1 X113.681 Y147.472 E45.19563
G1 X114.326 Y147.707 E45.22988
G1 X115.012 Y147.707 E45.2641
G1 X115.659 Y147.472 E45.29845
G1 X116.185 Y147.031 E45.33269
G1 X116.528 Y146.435 E45.367
G1 X116.647 Y145.759 E45.40124
G1 X116.528 Y145.082 E45.43554
G1 X116.202 Y144.516 E45.46812
G1 X116.159 Y144.465 E45.47145
G1 X115.659 Y144.045 E45.50403
G1 X115.012 Y143.81 E45.53837
G1 X114.326 Y143.81 E45.5726
G0 F3600 X114.138 Y143.878
G0 X113.968 Y143.408
G0 X107.576 Y126.811
G0 X107.43 Y125.983
G0 X107.576 Y125.155
G0 X107.997 Y124.425
G0 X108.585 Y123.934
G0 X109.256 Y123.683
G0 X109.51 Y124.035
G1 F1800 X108.872 Y124.265 E45.60643
G1 X108.338 Y124.711 E45.64114
G1 X107.995 Y125.307 E45.67545
G1 X107.876 Y125.983 E45.70969
G1 X107.995 Y126.659 E45.74394
G1 X108.338 Y127.254 E45.7782
G1 X108.864 Y127.697 E45.81251
G1 X109.51 Y127.931 E45.84679
G1 X110.197 Y127.931 E45.88106
G1 X110.842 Y127.697 E45.9153
G1 X111.37 Y127.255 E45.94965
G1 X111.713 Y126.659 E45.98396
G1 X111.832 Y125.983 E46.0182
G1 X111.713 Y125.307 E46.05245
G1 X111.388 Y124.744 E46.08488
G1 X111.343 Y124.689 E46.08842
G1 X110.841 Y124.27 E46.12105
G1 X110.197 Y124.035 E46.15525
G1 X109.51 Y124.035 E46.18952
G0 F3600 X109.322 Y124.102
G0 X109.154 Y123.716
G0 X108.651 Y123.879
G0 X107.997 Y124.425
G0 X107.576 Y125.155
G0 X107.43 Y125.983
G0 X107.576 Y126.811
G0 X107.997 Y127.54
G0 X108.641 Y128.083
G0 X109.434 Y128.37
G0 X110.273 Y128.37
G0 X111.064 Y128.083
G0 X111.711 Y127.541
G0 X112.132 Y126.811
G0 X112.249 Y126.141
G0 X118.949 Y123.683
G0 X119.202 Y124.035
G1 F1800 X118.556 Y124.27 E46.22382
G1 X118.03 Y124.711 E46.25806
G1 X117.687 Y125.306 E46.29233
G1 X117.567 Y125.983 E46.32663
G1 X117.687 Y126.66 E46.36093
G1 X118.03 Y127.254 E46.39515
G1 X118.556 Y127.697 E46.42946
G1 X119.202 Y127.931 E46.46374
G1 X119.889 Y127.931 E46.49801
G1 X120.535 Y127.697 E46.53229
G1 X121.061 Y127.255 E46.56657
G1 X121.405 Y126.66 E46.60086
G1 X121.524 Y125.983 E46.63515
G1 X121.405 Y125.306 E46.66944
G1 X121.079 Y124.744 E46.70186
G1 X121.034 Y124.689 E46.7054
G1 X120.535 Y124.27 E46.73791
G1 X119.889 Y124.035 E46.77221
G1 X119.202 Y124.035 E46.80648
G0 F3600 X119.014 Y124.103
G0 X118.844 Y123.716
G0 X112.278 Y125.983
G0 X112.132 Y126.811
G0 X111.711 Y127.541
G0 X111.064 Y128.083
G0 X110.273 Y128.37
G0 X109.434 Y128.37
G0 X108.641 Y128.083
G0 X103.805 Y123.694
G0 X103.805 Y80.299
G0 X104.233 Y80.227
G0 X104.233 Y80.727
G1 F1800 X104.233 Y123.266 E48.92876
G1 X125.613 Y123.266 E49.99541
G1 X125.613 Y80.727 E52.11769
G1 X104.233 Y80.727 E53.18434
G0 F3600 X104.233 Y80.927
G0 X103.733 Y80.927
G0 X103.805 Y80.299
G0 X107.874 Y76.102
G0 X108.456 Y75.616
G0 X109.388 Y75.212
G0 X109.388 Y75.712
G1 F1800 X108.743 Y75.947 E53.21859
G1 X108.215 Y76.388 E53.25291
G1 X107.872 Y76.984 E53.28722
G1 X107.753 Y77.66 E53.32147
G1 X107.872 Y78.336 E53.35571
G1 X108.215 Y78.932 E53.39002
G1 X108.743 Y79.373 E53.42434
G1 X109.388 Y79.608 E53.45859
G1 X110.075 Y79.608 E53.49286
G1 X110.721 Y79.373 E53.52716
G1 X111.247 Y78.932 E53.5614
G1 X111.59 Y78.336 E53.59571
G1 X111.709 Y77.66 E53.62995
G1 X111.59 Y76.984 E53.6642
G1 X111.265 Y76.421 E53.69663
G1 X111.22 Y76.366 E53.70018
G1 X110.721 Y75.947 E53.73268
G1 X110.075 Y75.712 E53.76698
G1 X109.388 Y75.712 E53.80125
G0 F3600 X109.2 Y75.78
G0 X109.03 Y75.31
G0 X101.272 Y72.71
G0 X100.802 Y72.438
G1 F1800 X100.802 Y72.238 E53.81123
G1 X101.002 Y72.238 E53.81769
G1 X129.252 Y72.376 E55.22711
G1 X129.252 Y150.02 E59.10078
G1 X123.684 Y157.763 E59.57659
G1 X107.397 Y157.763 E60.38915
G1 X100.748 Y149.872 E60.90396
G1 X100.802 Y72.438 E64.76716
G0 F3600 X100.802 Y72.238
G0 X101.272 Y72.71
G0 X119.155 Y75.212
G0 X119.155 Y75.712
G1 F1800 X118.509 Y75.947 E64.80145
G1 X117.984 Y76.388 E64.83566
G1 X117.639 Y76.983 E64.86997
G1 X117.52 Y77.66 E64.90427
G1 X117.639 Y78.337 E64.93856
G1 X117.984 Y78.932 E64.97287
G1 X118.509 Y79.373 E65.00708
G1 X119.155 Y79.608 E65.04138
G1 X119.842 Y79.608 E65.07565
G1 X120.488 Y79.373 E65.10995
G1 X121.013 Y78.932 E65.14415
G1 X121.358 Y78.337 E65.17847
G1 X121.477 Y77.66 E65.21276
G1 X121.358 Y76.983 E65.24705
G1 X121.032 Y76.421 E65.27947
G1 X120.987 Y76.366 E65.28301
G1 X120.488 Y75.947 E65.31552
G1 X119.842 Y75.712 E65.34982
G1 X119.155 Y75.712 E65.38409
G0 F3600 X118.967 Y75.78
G0 X118.797 Y75.31
G0 X119.017 Y74.922
;TYPE:SKIN
G1 F1800 X118.107 Y75.252 E65.43238
G1 X117.37 Y75.872 E65.48043
G1 X116.885 Y76.708 E65.52865
G1 X116.718 Y77.66 E65.57687
G1 X116.885 Y78.612 E65.62509
G1 X117.37 Y79.448 E65.67331
G1 X117.952 Y79.937 E65.71124
G1 X111.278 Y79.937 E66.0442
G1 X111.862 Y79.448 E66.08221
G1 X112.344 Y78.61 E66.13044
G1 X112.511 Y77.66 E66.17856
G1 X112.344 Y76.71 E66.22668
G1 X111.917 Y75.971 E66.26926
G1 X111.785 Y75.809 E66.27969
G1 X111.123 Y75.252 E66.32285
G1 X110.213 Y74.922 E66.37114
G1 X109.248 Y74.922 E66.41929
G1 X108.343 Y75.252 E66.46735
G1 X107.6 Y75.872 E66.51562
G1 X107.118 Y76.71 E66.56385
G1 X106.951 Y77.66 E66.61198
G1 X107.118 Y78.61 E66.6601
G1 X107.6 Y79.448 E66.70833
G1 X108.186 Y79.937 E66.74641
G1 X103.443 Y79.937 E66.98304
G1 X103.443 Y124.056 E69.18414
G1 X107.891 Y124.056 E69.40605
G1 X107.724 Y124.195 E69.41689
G1 X107.241 Y125.033 E69.46515
G1 X107.074 Y125.983 E69.51327
G1 X107.241 Y126.933 E69.56139
G1 X107.723 Y127.769 E69.60954
G1 X108.462 Y128.392 E69.65776
G1 X109.372 Y128.721 E69.70604
G1 X110.335 Y128.721 E69.75408
G1 X111.242 Y128.392 E69.80222
G1 X111.985 Y127.771 E69.85053
G1 X112.467 Y126.933 E69.89876
G1 X112.634 Y125.983 E69.94688
G1 X112.467 Y125.033 E69.995
G1 X112.04 Y124.294 E70.03758
G1 X111.908 Y124.131 E70.04805
G1 X111.818 Y124.056 E70.05389
G1 X117.581 Y124.056 E70.34141
G1 X117.415 Y124.195 E70.35221
G1 X116.933 Y125.032 E70.4004
G1 X116.765 Y125.983 E70.44858
G1 X116.933 Y126.935 E70.49681
G1 X117.415 Y127.769 E70.54487
G1 X118.154 Y128.392 E70.59309
G1 X119.064 Y128.721 E70.64136
G1 X120.027 Y128.721 E70.68941
G1 X120.935 Y128.392 E70.73759
G1 X121.676 Y127.771 E70.78583
G1 X122.159 Y126.934 E70.83404
G1 X122.326 Y125.983 E70.88221
G1 X122.159 Y125.031 E70.93043
G1 X121.731 Y124.294 E70.97295
G1 X121.599 Y124.132 E70.98337
G1 X121.508 Y124.056 E70.98929
G1 X126.403 Y124.056 E71.2335
G1 X126.403 Y79.937 E73.43461
G1 X121.045 Y79.937 E73.70192
G1 X121.627 Y79.448 E73.73984
G1 X122.112 Y78.612 E73.78806
G1 X122.279 Y77.66 E73.83628
G1 X122.112 Y76.708 E73.8845
G1 X121.684 Y75.971 E73.92702
G1 X121.552 Y75.809 E73.93745
G1 X120.89 Y75.252 E73.98061
G1 X119.98 Y74.922 E74.02891
G1 X119.017 Y74.922 E74.07695
G0 F3600 X128.462 Y73.162
G1 F1800 X128.462 Y149.765 E77.89869
G1 X123.279 Y156.973 E78.34161
G1 X107.764 Y156.973 E79.11566
G1 X101.538 Y149.584 E79.59772
G1 X101.592 Y73.032 E83.41691
G1 X128.462 Y73.162 E84.75748
G0 F3600 X126.041 Y123.694
G0 X115.15 Y143.02
G1 F1800 X114.186 Y143.02 E84.80557
G1 X113.281 Y143.35 E84.85363
G1 X112.538 Y143.97 E84.90191
G1 X112.056 Y144.809 E84.95018
G1 X111.889 Y145.762 E84.99845
G1 X112.056 Y146.709 E85.04643
G1 X112.538 Y147.547 E85.09466
G1 X113.281 Y148.167 E85.14294
G1 X114.186 Y148.497 E85.19099
G1 X115.15 Y148.497 E85.23909
G1 X116.059 Y148.167 E85.28733
G1 X116.8 Y147.547 E85.33554
G1 X117.282 Y146.709 E85.38377
G1 X117.449 Y145.759 E85.43189
G1 X117.282 Y144.808 E85.48006
G1 X116.851 Y144.061 E85.52309
G1 X116.72 Y143.904 E85.53329
G1 X116.06 Y143.35 E85.57628
G1 X115.15 Y143.02 E85.62457
G0 F3600 X113.459 Y143.659
G0 X112.812 Y144.2
G0 X112.472 Y144.791
G0 X108.143 Y156.792
G1 F1800 X106.266 Y154.915 E85.757
G1 X106.196 Y154.845
G0 F3600 X108.709 Y156.792
G1 F1800 X103.239 Y151.322 E86.14294
G1 X103.169 Y151.252
G0 F3600 X101.718 Y149.235
G1 F1800 X109.274 Y156.792 E86.67609
G1 X109.344 Y156.862
G0 F3600 X109.84 Y156.792
G1 F1800 X101.718 Y148.669 E87.24918
G1 X101.648 Y148.599
G0 F3600 X101.718 Y148.104
G1 F1800 X110.406 Y156.792 E87.86217
G1 X110.476 Y156.862
G0 F3600 X110.971 Y156.792
G1 F1800 X101.718 Y147.539 E88.51502
G1 X101.648 Y147.469
G0 F3600 X101.719 Y146.974
G1 F1800 X111.537 Y156.792 E89.20773
G1 X111.607 Y156.862
G0 F3600 X112.103 Y156.792
